ir/short-pants-alt.svg

<svg stroke-width="1.5" viewBox="0 0 24 24" fill="none" xmlns="http://www.w3.org/2000/svg" height="1em" width="1em">
  <path d="M12 16.8H18.9662C19.2706 16.8 19.5267 16.5721 19.5621 16.2698L20.9215 4.66983C20.9633 4.31323 20.6846 4 20.3256 4H3.65888C3.30539 4 3.02851 4.30406 3.0615 4.65601L4.449 19.456C4.47791 19.7643 4.73671 20 5.04638 20H11.4C11.7314 20 12 19.7314 12 19.4V12" stroke="currentColor" stroke-linecap="round" stroke-linejoin="round"/>
</svg>

<svg stroke-width="1.5" viewBox="0 0 24 24" fill="none" xmlns="http://www.w3.org/2000/svg" height="1em" width="1em">
  <path d="M12 16.8h6.966a.6.6 0 0 0 .596-.53l1.36-11.6a.6.6 0 0 0-.596-.67H3.659a.6.6 0 0 0-.597.656l1.387 14.8a.6.6 0 0 0 .597.544H11.4a.6.6 0 0 0 .6-.6V12" stroke="currentColor" stroke-linecap="round" stroke-linejoin="round"/>
</svg>
